X:23
T:Epping Forest
C:John Playford 1670
S:Colin Hume's website,  colinhume.com  - chords can also be printed below the stave.
Q:3/8=120
P:(AABBCC)3
M:6/8
L:1/8
K:Cdor clef=treble
P:A
[||: "Eb"g2g "Bb"f>ed | "Cm"e>dc "G"=B2a | "Eb"b>ag "F"f2e | "Bb"d3- d2g |\
"Gm"b>ag "Dm"f2d | "Cm"e>dc "G"=B2G | "F"A>=Bc "G"c2B | "Cm"c3-c2 e/2f/2 :|
P:B
[||: "Eb"g3 "Bb"f3 | "Cm"e3- e2g/2a/2 | "Gm"b3 "D"a3 \
|1 "G"g3- g2 e/2f/2 :|2 "G"g3-g2 g ||
P:C
[||: "Eb"g>ag "Bb"f>ed | "Cm"e>dc "G"=B2G | "F"A>=Bc "G"c2B
|1 "Cm"c3- c2 g :|2 "Cm"c6 |]

